X:1
T:Joyful, Joyful, We Adore You
T:Text: Henry van Dyke, alt Tune: Ludwig van Beethoven, arr. by Edward Hodges
T:87 87D HYMN TO JOY http://www.hymnary.org/hymn/AAHH2001/120
T:Joyful, Joyful, We Adore You
%%score ( 1 2 ) ( 3 4 )
L:1/8
M:4/4
K:G
V:1 treble nm="Voice" snm="Voice"
V:2 treble 
V:3 bass nm="Voice" snm="Voice"
V:4 bass 
V:1
 [DB]2 [DB]2 [Dc]2 [Dd]2 | [Dd]2 c2 [GB]2 [DA]2 | [DG]2 [DG]2 [FA]2 [GB]2 | [GB]3 [FA] [FA]4 | %4
w: 3.~Al- ways gi- ving|and for- gi- ving,|E- ver bles- sing,|e- ver blest,|
w: 1.~Joy- ful, joy- ful,|we a- dore You,|God of glo- ry,|Lord of love;|
w: 2.~All Your works with|joy sur- round You,|Earth and heav'n re-|flect Your rays,|
 [GB]2 [DB]2 [Ec]2 [=Fd]2 | [=Fd]2 [Ec]2 [DB]2 [EA]2 | [DG]2 [DG]2 [FA]2 [GB]2 | [FA]3 G G4 | %8
w: Well- spring of the|joy of li- ving,|O- cean depth of|hap- py rest!|
w: Hearts un- fold like|flow'rs be- fore You,|O- p'ning to the|sun a- bove.|
w: Stars and an- gels|sing a- round You,|Cen- ter of un-|bro- ken praise;|
 [FA]2 [DA]2 [DB]2 G2 | [FA]2 (([GB][Fc])) [GB]2 G2 | [FA]2 (Bc) [FB]2 [^DA]2 | G2 [^CA]2 D4 | %12
w: Lo- ving Fa- ther,|Christ our _ Bro- ther,|Let Your _ light up-|on us shine;|
w: Melt the clouds of|sin and _ sad- ness;|Drive the _ dark of|doubt a- way;|
w: Field and for- est,|vale and _ moun- tain,|Flow'- ry _ mea- dow,|fla- shing sea,|
 [DB]2 [DB]2 [Ec]2 [=Fd]2 | [=Fd]2 [Ec]2 [DB]2 [EA]2 | [DG]2 [DG]2 [^FA]2 [GB]2 | [FA]3 G G4 |] %16
w: Teach us how to|love each o- ther,|Lift us to the|joy di- vine.|
w: Gi- ver of im-|mor- tal glad- ness,|Fill us with the|light of day!|
w: Chan- ting bird and|flo- wing foun- tain|Prais- ing You e-|ter- nal- ly!|
V:2
 x8 | x2 (EF) x4 | x8 | x8 | x8 | x8 | x8 | x3 G G4 | x4 x2 G2 | x4 x2 G2 | x2 F2 x4 | %11
 (E=D) x2 D4 | x8 | x8 | x8 | x3 G G4 |] %16
V:3
 G,2 G,2 A,2 [G,B,]2 | [D,B,]2 [D,A,]2 [D,G,]2 [C,F,]2 | [B,,G,]2 [B,,B,]2 [A,,C]2 [G,,D]2 | %3
 [D,D]3 [D,D] [D,D]4 | [G,D]2 [G,D]2 [G,C]2 [G,B,]2 | [C,G,]2 [C,A,]2 [C,B,]2 [C,C]2 | %6
 [D,B,]2 [D,B,]2 [D,C]2 [D,D]2 | [D,C]3 [G,B,] [G,B,]4 | [D,D]2 [D,F,]2 [D,G,]2 [D,B,]2 | %9
"^Copyright 2012 Hymnary.org. You may use this score in personal and corporate worship settings. Commercial use and republication are prohibited without written consent." [D,C]2 (B,A,) [D,G,]2 [D,B,]2 | %10
 [D,C]2 (B,A,) [^D,B,]2 [B,,B,]2 | [E,B,]2 A,G, [D,F,]4 | G,2 [G,D]2 [G,C]2 [G,B,]2 | %13
 [C,G,]2 [C,A,]2 [C,B,]2 [C,C]2 | [D,B,]2 [D,B,]2 [D,C]2 [D,D]2 | [D,C]3 [G,B,] [G,B,]4 |] %16
V:4
 G,2 G,2 G,2 x2 | x8 | x8 | x8 | x8 | x8 | x8 | x8 | x8 | x2 D,2 x4 | x2 D,2 x4 | x2 A,,2 x4 | %12
 G,2 x2 x4 | x8 | x8 | x8 |] %16

